img/flying/img-6.svg

<svg width="140" height="138" viewBox="0 0 140 138" fill="none" xmlns="http://www.w3.org/2000/svg">
<g clip-path="url(#clip0_245_22)">
<g filter="url(#filter0_d_245_22)">
<path d="M89.4179 69.7526L77.904 68.0634C76.5752 67.8649 75.22 68.3419 74.2946 69.3347L66.3796 77.8607C64.056 80.3594 59.8828 79.1131 59.3082 75.7534L57.3677 64.2789C57.1374 62.945 56.2681 61.8088 55.0341 61.2406L44.4824 56.3423C41.3879 54.9092 41.2866 50.5513 44.3072 48.9691L54.6161 43.5677C55.8143 42.9387 56.6168 41.7629 56.7807 40.42L58.1831 28.8638C58.587 25.4804 62.6904 24.0357 65.1362 26.4161L73.4612 34.5498C74.4247 35.4968 75.8004 35.9047 77.1224 35.6456L88.5476 33.3992C91.8849 32.7435 94.532 36.2061 93.0164 39.2617L87.8631 49.6876C87.2602 50.9006 87.2938 52.3318 87.9546 53.5133L93.6193 63.68C95.2702 66.6593 92.7941 70.2469 89.4179 69.7526Z" fill="#99DDE3"/>
</g>
<path d="M132.101 103.005C133.376 108.7 129.611 114.461 123.828 115.669C118.359 116.812 112.866 113.943 111.809 109.401C110.512 103.794 114.786 96.2159 119.976 94.9219C125.242 93.6072 130.834 97.3439 132.101 103.005Z" fill="#99DDE3"/>
<path d="M23.991 12.7852C25.2661 18.4802 21.5007 24.2421 15.7181 25.4494C10.2489 26.5919 4.75595 23.7227 3.69819 19.1814C2.40185 13.5745 6.67634 5.99752 11.8653 4.70192C17.119 3.39034 22.7238 7.12532 23.991 12.7852Z" fill="white"/>
<path d="M38.3595 118.767C39.4878 124.355 35.7093 130.059 30.2964 130.964C25.4234 131.779 20.927 128.784 19.9416 124.078C18.8168 118.688 22.6749 113.523 28.67 112.41C33.8256 111.454 37.3493 113.767 38.3595 118.767Z" fill="#FEE927"/>
</g>
<defs>
<filter id="filter0_d_245_22" x="12.1005" y="-4.75952" width="172.044" height="173.939" filterUnits="userSpaceOnUse" color-interpolation-filters="sRGB">
<feFlood flood-opacity="0" result="BackgroundImageFix"/>
<feColorMatrix in="SourceAlpha" type="matrix" values="0 0 0 0 0 0 0 0 0 0 0 0 0 0 0 0 0 0 127 0" result="hardAlpha"/>
<feOffset dx="30" dy="30"/>
<feGaussianBlur stdDeviation="30"/>
<feComposite in2="hardAlpha" operator="out"/>
<feColorMatrix type="matrix" values="0 0 0 0 0.882353 0 0 0 0 0.784314 0 0 0 0 0.827451 0 0 0 0.4 0"/>
<feBlend mode="normal" in2="BackgroundImageFix" result="effect1_dropShadow_245_22"/>
<feBlend mode="normal" in="SourceGraphic" in2="effect1_dropShadow_245_22" result="shape"/>
</filter>
<clipPath id="clip0_245_22">
<rect width="140" height="138" fill="white"/>
</clipPath>
</defs>
</svg>

<svg width="140" height="138" fill="none" xmlns="http://www.w3.org/2000/svg"><g clip-path="url(#clip0_245_22)"><g filter="url(#filter0_d_245_22)"><path d="M89.418 69.753l-11.514-1.69a4.117 4.117 0 00-3.61 1.272L66.38 77.86c-2.324 2.498-6.497 1.252-7.072-2.108l-1.94-11.474a4.112 4.112 0 00-2.334-3.038l-10.552-4.899c-3.094-1.433-3.195-5.79-.175-7.373l10.31-5.401a4.106 4.106 0 002.164-3.148l1.402-11.556c.404-3.384 4.507-4.828 6.953-2.448l8.325 8.134a4.105 4.105 0 003.661 1.096l11.426-2.247c3.337-.656 5.984 2.807 4.468 5.863l-5.153 10.426a4.099 4.099 0 00.092 3.825l5.664 10.167c1.651 2.98-.825 6.567-4.201 6.073z" fill="#99DDE3"/></g><path d="M132.101 103.005c1.275 5.695-2.49 11.456-8.273 12.664-5.469 1.143-10.962-1.726-12.019-6.268-1.297-5.607 2.977-13.185 8.167-14.48 5.266-1.314 10.858 2.423 12.125 8.084z" fill="#99DDE3"/><path d="M23.991 12.785c1.275 5.695-2.49 11.457-8.273 12.664-5.47 1.143-10.962-1.726-12.02-6.268-1.296-5.607 2.978-13.183 8.167-14.48 5.254-1.31 10.859 2.424 12.126 8.084z" fill="#fff"/><path d="M38.36 118.767c1.128 5.588-2.65 11.292-8.064 12.197-4.873.815-9.369-2.18-10.354-6.886-1.125-5.39 2.733-10.555 8.728-11.668 5.156-.956 8.68 1.357 9.69 6.357z" fill="#FEE927"/></g><defs><clipPath id="clip0_245_22"><path fill="#fff" d="M0 0h140v138H0z"/></clipPath><filter id="filter0_d_245_22" x="12.101" y="-4.76" width="172.044" height="173.939" filterUnits="userSpaceOnUse" color-interpolation-filters="sRGB"><feFlood flood-opacity="0" result="BackgroundImageFix"/><feColorMatrix in="SourceAlpha" values="0 0 0 0 0 0 0 0 0 0 0 0 0 0 0 0 0 0 127 0" result="hardAlpha"/><feOffset dx="30" dy="30"/><feGaussianBlur stdDeviation="30"/><feComposite in2="hardAlpha" operator="out"/><feColorMatrix values="0 0 0 0 0.882353 0 0 0 0 0.784314 0 0 0 0 0.827451 0 0 0 0.4 0"/><feBlend in2="BackgroundImageFix" result="effect1_dropShadow_245_22"/><feBlend in="SourceGraphic" in2="effect1_dropShadow_245_22" result="shape"/></filter></defs></svg>
